X: 20
T:Fiery Clockface
M:6/8
L:1/8
R:Jig
N:http://www.lesession.co.uk
Z:Steve Mansfield 1998-2001
K:D
A | d2 d D2 E | F2 G A2 B | =c2 =c E2 F | G2 A B2 c | 
d2 d D2 E | F2 G A2 A | Bcd edc | d3 d2 :: e | 
f2 f def | g2 f e2 d | c2 B A2 B | c2 d e2 e | 
f2 f def | g2 f e2 d | cBA B2 c | d3 d2 :|

